X:18
T:Madame Bonaparte
Z: id:dc-setdance-19
M:C|
L:1/8
K:A Major
ed|c2cB cecA|d2dc dfdB|Aceg agaf|e3f edcB|!
c2cB cecA|dcde fgaf|ecAc dBGB|A2AG A2:|!
cB|Aceg a3f|e3f edcB|Aceg a3f|e3f edcB|!
ceAe ceAe|dfBf dfBf|ceAe ceAe|GBEB GBEB|!
ceAe ceAe|dcde fgaf|ecAc dBGB|A2AG A2:|!

